src/lib/packages/icons/src/assets/line/user-star.svg

<svg width="24" height="24" viewBox="0 0 24 24" fill="none" xmlns="http://www.w3.org/2000/svg">
<path d="M10.009 10.75C7.66503 10.75 5.75903 8.843 5.75903 6.5C5.75903 4.157 7.66503 2.25 10.009 2.25C12.353 2.25 14.259 4.157 14.259 6.5C14.259 8.843 12.353 10.75 10.009 10.75ZM10.009 3.75C8.49203 3.75 7.25903 4.983 7.25903 6.5C7.25903 8.017 8.49203 9.25 10.009 9.25C11.526 9.25 12.759 8.017 12.759 6.5C12.759 4.983 11.525 3.75 10.009 3.75ZM11 21.75H6C3.582 21.75 2.25 20.425 2.25 18.02C2.25 15.358 3.756 12.25 8 12.25H12C12.852 12.25 13.613 12.374 14.264 12.618C14.652 12.764 14.848 13.196 14.702 13.584C14.556 13.972 14.125 14.168 13.736 14.022C13.256 13.841 12.671 13.75 12 13.75H8C4.057 13.75 3.75 17.019 3.75 18.02C3.75 19.583 4.423 20.25 6 20.25H11C11.414 20.25 11.75 20.586 11.75 21C11.75 21.414 11.414 21.75 11 21.75ZM20.157 22.679C19.965 22.679 19.771 22.634 19.592 22.541L18 21.722L16.4091 22.541C15.9881 22.757 15.491 22.716 15.113 22.437C14.738 22.161 14.555 21.706 14.636 21.25L14.9351 19.54L13.618 18.282C13.287 17.968 13.168 17.502 13.306 17.068C13.446 16.63 13.818 16.317 14.276 16.252L16.1121 15.991L16.902 14.423C17.111 14.008 17.532 13.751 18 13.751C18.468 13.751 18.889 14.009 19.098 14.424L19.8879 15.9919L21.724 16.2531C22.182 16.3181 22.554 16.63 22.694 17.069C22.833 17.504 22.714 17.9691 22.382 18.2841L21.066 19.541L21.366 21.2531C21.446 21.7101 21.2619 22.1639 20.8879 22.4399C20.6699 22.5979 20.414 22.679 20.157 22.679ZM18 20.1851C18.189 20.1851 18.378 20.229 18.551 20.318L19.79 20.9561L19.558 19.63C19.491 19.238 19.621 18.8429 19.908 18.5699L20.877 17.646L19.522 17.454C19.133 17.399 18.7959 17.157 18.6219 16.808L18.002 15.578L17.381 16.8101C17.207 17.1571 16.8701 17.398 16.4821 17.454L15.127 17.646L16.0959 18.571C16.3819 18.844 16.513 19.2391 16.447 19.6281L16.215 20.9561L17.454 20.318C17.622 20.229 17.811 20.1851 18 20.1851ZM21.5129 17.7371H21.5229H21.5129ZM16.0389 16.135L16.038 16.136L16.0389 16.135ZM19.96 16.1331L19.9611 16.134C19.9601 16.134 19.96 16.1331 19.96 16.1331Z" fill="currentColor"/>
</svg>

<svg xmlns="http://www.w3.org/2000/svg" width="24" height="24" fill="none"><path fill="currentColor" d="M10.009 10.75a4.255 4.255 0 0 1-4.25-4.25 4.255 4.255 0 0 1 4.25-4.25 4.255 4.255 0 0 1 4.25 4.25 4.255 4.255 0 0 1-4.25 4.25Zm0-7a2.752 2.752 0 0 0-2.75 2.75 2.752 2.752 0 0 0 2.75 2.75 2.752 2.752 0 0 0 2.75-2.75 2.753 2.753 0 0 0-2.75-2.75Zm.991 18H6c-2.418 0-3.75-1.325-3.75-3.73 0-2.662 1.506-5.77 5.75-5.77h4c.852 0 1.613.124 2.264.368a.75.75 0 1 1-.528 1.404c-.48-.181-1.065-.272-1.736-.272H8c-3.943 0-4.25 3.269-4.25 4.27 0 1.563.673 2.23 2.25 2.23h5a.75.75 0 0 1 0 1.5Zm9.157.929c-.192 0-.386-.045-.565-.138L18 21.722l-1.59.819a1.227 1.227 0 0 1-1.297-.104 1.205 1.205 0 0 1-.477-1.187l.3-1.71-1.318-1.258a1.185 1.185 0 0 1 .658-2.03l1.836-.261.79-1.568c.209-.415.63-.672 1.098-.672.468 0 .889.258 1.098.673l.79 1.568 1.836.261c.458.065.83.377.97.816.139.435.02.9-.312 1.215l-1.316 1.257.3 1.712c.08.457-.104.91-.478 1.187a1.245 1.245 0 0 1-.731.239ZM18 20.185c.189 0 .378.044.551.133l1.239.638-.232-1.326a1.182 1.182 0 0 1 .35-1.06l.969-.924-1.355-.192a1.192 1.192 0 0 1-.9-.646l-.62-1.23-.621 1.232c-.174.347-.51.588-.899.644l-1.355.192.969.925c.286.273.417.668.351 1.057l-.232 1.328 1.239-.638c.168-.089.357-.133.546-.133Zm3.513-2.448h.01-.01Zm-5.474-1.602-.001.001v-.001Zm3.921-.002.001.001h-.001Z"/></svg>
